svgs/thin/text-width.svg

<svg xmlns="http://www.w3.org/2000/svg" viewBox="0 0 448 512"><!--! Font Awesome Pro 6.3.0 by @fontawesome - https://fontawesome.com License - https://fontawesome.com/license (Commercial License) Copyright 2023 Fonticons, Inc. --><path d="M440 32H8C3.578 32 0 35.58 0 40v80C0 124.4 3.578 128 8 128S16 124.4 16 120V48h200v224h-48C163.6 272 160 275.6 160 280S163.6 288 168 288h112C284.4 288 288 284.4 288 280S284.4 272 280 272h-48v-224h200v72C432 124.4 435.6 128 440 128S448 124.4 448 120v-80C448 35.58 444.4 32 440 32zM357.7 290.3c-3.125-3.125-8.188-3.125-11.31 0s-3.125 8.188 0 11.31L420.7 376H27.31l74.34-74.34C103.2 300.1 104 298 104 296S103.2 291.9 101.7 290.3c-3.125-3.125-8.188-3.125-11.31 0l-88 88c-3.125 3.125-3.125 8.188 0 11.31l88 88c3.125 3.125 8.188 3.125 11.31 0s3.125-8.188 0-11.31L27.31 392h393.4l-74.34 74.34C344.8 467.9 344 469.1 344 472s.7813 4.094 2.344 5.656c3.125 3.125 8.188 3.125 11.31 0l88-88c3.125-3.125 3.125-8.188 0-11.31L357.7 290.3z"/></svg>

<svg xmlns="http://www.w3.org/2000/svg" viewBox="0 0 448 512"><!-- Font Awesome Pro 6.0.0-alpha2 by @fontawesome - https://fontawesome.com License - https://fontawesome.com/license (Commercial License) --><path d="M440 32H8C3.578 32 0 35.578 0 40V120C0 124.422 3.578 128 8 128S16 124.422 16 120V48H216V272H168C163.578 272 160 275.578 160 280S163.578 288 168 288H280C284.422 288 288 284.422 288 280S284.422 272 280 272H232V48H432V120C432 124.422 435.578 128 440 128S448 124.422 448 120V40C448 35.578 444.422 32 440 32ZM357.656 290.344C354.531 287.219 349.469 287.219 346.344 290.344S343.219 298.531 346.344 301.656L420.688 376H27.312L101.656 301.656C103.219 300.094 104 298.047 104 296S103.219 291.906 101.656 290.344C98.531 287.219 93.469 287.219 90.344 290.344L2.344 378.344C-0.781 381.469 -0.781 386.531 2.344 389.656L90.344 477.656C93.469 480.781 98.531 480.781 101.656 477.656S104.781 469.469 101.656 466.344L27.312 392H420.688L346.344 466.344C344.781 467.906 344 469.953 344 472S344.781 476.094 346.344 477.656C349.469 480.781 354.531 480.781 357.656 477.656L445.656 389.656C448.781 386.531 448.781 381.469 445.656 378.344L357.656 290.344Z"/></svg>
